X:1
T:James Gibb editions
T:Psalm 6 (Becker) - Schütz
%%score [ ( 1 2 ) ( 3 4 ) ]
L:1/8
Q:1/4=100
M:2/2
K:F
V:1 treble nm="Soprano Alto"
V:2 treble 
V:3 bass nm="Tenor Bass"
V:4 bass 
V:1
"^Cornelius Becker\n(1561-1604)""^Heinrich Schütz\n(1585-1672)" c4 B4 | %1
w: |
 A4 G2"^Psalm 6, SWV 102" A2 | F2 G2 A4 | F4 G2 c2 | B2 A2 G4 | F4 :|[M:2/2] A4 G2 A2 | %7
w: |||||denn ich voll|
 F2 E2 D2 D2 | C4 E4 | F2 G2 A2 G2 | G2 ^F2 G4 | B4 A2 G2 | F2 G2 A4 | A8 |] %14
w: Schmerz und Trüb- sal|bin, heil|mich, mein G'bein er-|||||
V:2
 E4 G4 | C4 E2 E2 | D2 D2 E4 | D4 E2 ^F2 | G2 C (F2 E/D/ E2) | F4 :|[M:2/2] F4 E2 F2 | %7
w: ~Ach Herr,|mein Gott, straf|mich doch nicht|in dei- nem|Zorn so schwe\- * * *|re,||
w: dein Grimm|wend ab, und|vä- ter- lich|in Gnad dich|zu mir keh\- * * *|re,||
 D2 C2 C2 =B,2 | C4 C4 | C2 D2 F2 D2 | D2 D2 D4 | D4 D2 B,2 | A,2 B, (D2 ^C/=B,/ C2) | D8 |] %14
w: |||schrok- ken sind,|mein Seel ist|sehr be- trü\- * * *|bet.|
w: |||||||
V:3
 A,4 D4 | A,4 C2 C2 | A,2 D2 ^C4 | A,4 =C2 C2 | D2 A,2 C4 | C4 :|[M:2/2] C4 C2 C2 | %7
 B,2 G,2 G,2 G,2 | G,4 G,4 | A,2 B,2 C2 B,2 | %10
"^2. Ach Herr, wie lang, wie lang, o Gott? Sieh doch, wie ich mich quäle,\nwend'dich, hilf mir aus aller Not, g'nad meiner armen Seele.\nVerfallen ist all mein Gestalt, vor Trauern bin ich worden alt,\ngroß Angst hat mich umfangen.\n\n4. Weicht ab von mir, zurücke kehrt, Gottlosen insgemeine,\ndenn Gott hat gnädiglich erhört mein G'bet und flehend Weinen.\nMein Feinde treff das Ungefäll, daß sie zurück sich kehren schnell,\nmit Schand und großem Schrecken.\n" A,2 A,2 G,4 | %11
 G,4 F,2 D,2 | D,2 D,2 E,4 | ^F,8 |] %14
V:4
 A,4 G,4 | F,4 C,2 A,,2 | D,2 B,,2 A,,4 | D,4 C,2 A,,2 | G,,2 F,,2 C,4 | F,,4 :| %6
[M:2/2] F,4 C,2 F,,2 | B,,2 C,2 G,,2 G,,2 | C,4 C,4 | A,,2 G,,2 F,,2 G,,2 | D,2 D,2 G,,4 | %11
 G,,4 D,2 G,,2 | D,2 B,,2 A,,4 | D,8 |] %14

